components/Common/Svg/svgs/webRtc.svg

<svg
  width="181"
  height="33"
  viewBox="0 0 181 33"
  fill="none"
  xmlns="http://www.w3.org/2000/svg"
>
  <path
    d="M93.5396 24.6642C93.5396 28.5657 90.3017 31.7288 86.3072 31.7288C82.3121 31.7288 79.0742 28.5657 79.0742 24.6642C79.0742 20.7627 82.3121 17.5997 86.3072 17.5997C90.3017 17.5997 93.5396 20.7627 93.5396 24.6642Z"
    fill="#858585"
  ></path>
  <path
    d="M107.844 14.7736C107.844 18.6745 104.606 21.8381 100.612 21.8381C96.6168 21.8381 93.3789 18.6745 93.3789 14.7736C93.3789 10.872 96.6168 7.70848 100.612 7.70848C104.606 7.70848 107.844 10.872 107.844 14.7736Z"
    fill="#848484"
  ></path>
  <path
    d="M90.1646 14.6175C90.1646 18.5184 86.9267 21.682 82.9316 21.682C78.9377 21.682 75.6992 18.5184 75.6992 14.6175C75.6992 10.716 78.9377 7.55239 82.9316 7.55239C86.9267 7.55239 90.1646 10.716 90.1646 14.6175Z"
    fill="#9A9A9A"
  ></path>
  <path
    d="M104.63 24.6642C104.63 28.5657 101.392 31.7288 97.3965 31.7288C93.4025 31.7288 90.1641 28.5657 90.1641 24.6642C90.1641 20.7627 93.4025 17.5997 97.3965 17.5997C101.392 17.5997 104.63 20.7627 104.63 24.6642Z"
    fill="#878787"
  ></path>
  <path
    d="M99.005 8.33758C99.005 12.2391 95.7665 15.4021 91.772 15.4021C87.7775 15.4021 84.5391 12.2391 84.5391 8.33758C84.5391 4.43607 87.7775 1.27303 91.772 1.27303C95.7665 1.27303 99.005 4.43607 99.005 8.33758Z"
    fill="#777777"
  ></path>
  <path
    d="M93.3789 14.7735C93.3789 14.9222 93.3922 15.0677 93.4017 15.2142C96.6099 14.4913 99.0043 11.6897 99.0043 8.33663C99.0043 8.188 98.991 8.04197 98.9815 7.89542C95.7733 8.61886 93.3789 11.4204 93.3789 14.7735Z"
    fill="#555454"
  ></path>
  <path
    d="M94.332 18.2715C95.5785 20.3999 97.9209 21.838 100.611 21.838C101.708 21.838 102.743 21.5925 103.675 21.1658C102.429 19.0374 100.086 17.5994 97.3955 17.5994C96.2991 17.5994 95.2636 17.8448 94.332 18.2715"
    fill="#6A6A6A"
  ></path>
  <path
    d="M90.1641 24.6642C90.1641 26.3902 90.7992 27.9696 91.8522 29.1964C92.9041 27.9696 93.5393 26.3902 93.5393 24.6642C93.5393 22.9382 92.9041 21.3587 91.8522 20.1319C90.7992 21.3587 90.1641 22.9382 90.1641 24.6642"
    fill="#6A6A6A"
  ></path>
  <path
    d="M80.0664 21.1033C80.9449 21.474 81.912 21.6817 82.93 21.6817C85.5937 21.6817 87.9144 20.2716 89.1699 18.1779C88.2914 17.8071 87.3238 17.6 86.3063 17.6C83.6426 17.6 81.3214 19.0101 80.0664 21.1033"
    fill="#6A6A6A"
  ></path>
  <path
    d="M84.5703 7.74082C84.5534 7.9376 84.5391 8.13542 84.5391 8.33687C84.5391 11.6874 86.9297 14.4864 90.1342 15.2124C90.1507 15.0156 90.165 14.8178 90.165 14.6169C90.165 11.2664 87.7749 8.46633 84.5703 7.74082Z"
    fill="#5F5F5F"
  ></path>
  <path
    d="M85.2473 23.7894H84.1158C83.117 23.7894 82.3047 22.9986 82.3047 22.0256V12.0227C82.3047 11.0497 83.117 10.2584 84.1158 10.2584H98.3034C99.3023 10.2584 100.114 11.0497 100.114 12.0227V22.0256C100.114 22.9986 99.3023 23.7894 98.3034 23.7894H93.4701L83.7728 28.4325L85.2473 23.7894Z"
    fill="white"
  ></path>
  <path
    d="M20.9289 25.3629L16.9457 10.9339L12.9121 25.3629C12.5983 26.4572 12.3462 27.2452 12.1558 27.7266C11.9765 28.1972 11.6572 28.624 11.1978 29.007C10.7384 29.3791 10.1278 29.5652 9.36588 29.5652C8.74964 29.5652 8.23984 29.4502 7.83648 29.2204C7.44432 29.0016 7.125 28.6897 6.8785 28.2848C6.63201 27.8689 6.43032 27.3819 6.27346 26.8238C6.1166 26.2547 5.97654 25.7294 5.85329 25.2479L1.75256 9.04587C1.50606 8.10473 1.38281 7.38792 1.38281 6.89545C1.38281 6.27167 1.6069 5.74638 2.05507 5.31958C2.50324 4.89278 3.05786 4.67938 3.71892 4.67938C4.62648 4.67938 5.23712 4.96391 5.55086 5.53298C5.86457 6.10204 6.13908 6.92829 6.37438 8.01175L9.60125 22.0634L13.2147 8.91477C13.4836 7.90795 13.7245 7.1419 13.9374 6.61662C14.1503 6.09133 14.4977 5.63716 14.9794 5.25414C15.4612 4.87112 16.1167 4.67962 16.9458 4.67962C17.7862 4.67962 18.436 4.88207 18.8954 5.28698C19.366 5.68096 19.6909 6.11322 19.8702 6.58379C20.0495 7.05436 20.2904 7.83136 20.5929 8.91477L24.2399 22.0634L27.4668 8.01175C27.6236 7.27853 27.7693 6.704 27.9038 6.28814C28.0494 5.87227 28.2903 5.50018 28.6264 5.17188C28.9738 4.84358 29.4724 4.67943 30.1222 4.67943C30.7721 4.67943 31.3211 4.89283 31.7693 5.31963C32.2287 5.73549 32.4584 6.26078 32.4584 6.8955C32.4584 7.34419 32.3351 8.06099 32.0886 9.04592L27.9879 25.248C27.7078 26.3423 27.4725 27.1467 27.282 27.661C27.1027 28.1644 26.789 28.6076 26.3408 28.9906C25.9039 29.3736 25.282 29.5652 24.4753 29.5652C23.7134 29.5652 23.1028 29.3791 22.6434 29.007C22.184 28.635 21.8647 28.2191 21.6854 27.7595C21.5061 27.2889 21.254 26.49 20.9291 25.3627L20.9289 25.3629Z"
    fill="#6A6A6A"
  ></path>
  <path
    d="M47.3981 21.5538H38.4234C38.4346 22.5715 38.6419 23.4689 39.0453 24.2459C39.4598 25.0229 40.0032 25.6083 40.6755 26.0023C41.359 26.3963 42.1097 26.5933 42.9276 26.5933C43.4766 26.5933 43.9752 26.5331 44.4234 26.4127C44.8828 26.2814 45.3253 26.0844 45.7511 25.8217C46.1769 25.5482 46.569 25.2582 46.9276 24.9517C47.2861 24.6453 47.7511 24.2295 48.3225 23.7042C48.5578 23.5072 48.894 23.4087 49.331 23.4087C49.8015 23.4087 50.1825 23.5345 50.4738 23.7862C50.7651 24.0379 50.9108 24.3936 50.9108 24.8532C50.9108 25.2581 50.7483 25.7342 50.4234 26.2814C50.0985 26.8176 49.6055 27.3374 48.9444 27.8408C48.2945 28.3333 47.471 28.7437 46.4739 29.072C45.4879 29.4003 44.3506 29.5644 43.0622 29.5644C40.1153 29.5644 37.824 28.7437 36.1883 27.1022C34.5523 25.4607 33.7344 23.2336 33.7344 20.4211C33.7344 19.0969 33.9361 17.8712 34.3394 16.7439C34.7428 15.6058 35.331 14.6318 36.1041 13.822C36.8772 13.0122 37.8296 12.3939 38.9613 11.9671C40.0929 11.5294 41.3478 11.3105 42.7261 11.3105C44.5189 11.3105 46.0539 11.6826 47.3312 12.4267C48.6197 13.16 49.5833 14.1121 50.2219 15.2831C50.8605 16.4541 51.1799 17.647 51.1799 18.8617C51.1799 19.9889 50.8493 20.7221 50.1883 21.0614C49.5272 21.3897 48.5973 21.5539 47.3985 21.5539L47.3981 21.5538ZM38.4234 19.0095H46.7427C46.6306 17.4774 46.2048 16.3338 45.4653 15.5787C44.7371 14.8126 43.7735 14.4296 42.5747 14.4296C41.4318 14.4296 40.4906 14.8181 39.7511 15.5951C39.0228 16.3611 38.5802 17.4992 38.4233 19.0094L38.4234 19.0095Z"
    fill="#6A6A6A"
  ></path>
  <path
    d="M58.7929 7.24119V14.0863C59.6556 13.2108 60.5352 12.5433 61.4316 12.0837C62.328 11.6131 63.4372 11.3778 64.7593 11.3778C66.2832 11.3778 67.6165 11.7334 68.7594 12.4448C69.9135 13.1452 70.8043 14.1684 71.4317 15.5145C72.0704 16.8496 72.3897 18.4364 72.3897 20.275C72.3897 21.632 72.2104 22.8795 71.8519 24.0176C71.5045 25.1448 70.9947 26.1243 70.3225 26.956C69.6502 27.7878 68.8323 28.4334 67.8686 28.893C66.9162 29.3417 65.863 29.5661 64.7091 29.5661C64.0032 29.5661 63.3365 29.484 62.7091 29.3199C62.0928 29.1557 61.5662 28.9423 61.1292 28.6797C60.6923 28.4061 60.3169 28.127 60.0032 27.8425C59.7007 27.5579 59.2973 27.1311 58.7931 26.5621V27.0053C58.7931 27.8479 58.5859 28.4882 58.1713 28.9259C57.7567 29.3527 57.2301 29.5661 56.5915 29.5661C55.9416 29.5661 55.4206 29.3527 55.0285 28.9259C54.6475 28.4882 54.457 27.8479 54.457 27.0053V7.43817C54.457 6.52985 54.6419 5.84589 55.0116 5.38626C55.3926 4.91568 55.9192 4.68039 56.5915 4.68039C57.2973 4.68039 57.8408 4.90473 58.2217 5.35342C58.6027 5.79116 58.7931 6.42041 58.7931 7.24119H58.7929ZM59.0113 20.5541C59.0113 22.3378 59.4259 23.7113 60.255 24.6744C61.0954 25.6265 62.1934 26.1025 63.5492 26.1025C64.7033 26.1025 65.6948 25.6155 66.5239 24.6416C67.3642 23.6566 67.7844 22.2504 67.7844 20.4228C67.7844 19.2409 67.6107 18.2231 67.2634 17.3695C66.9161 16.5159 66.4231 15.8593 65.7844 15.3997C65.1458 14.9291 64.4007 14.6938 63.5491 14.6938C62.6752 14.6938 61.8965 14.9291 61.213 15.3997C60.5295 15.8593 59.9917 16.5324 59.5996 17.4188C59.2074 18.2943 59.0113 19.3394 59.0113 20.554V20.5541Z"
    fill="#6A6A6A"
  ></path>
  <path
    d="M118.6 18.3315H116.761V26.4629C116.761 27.5333 116.52 28.3217 116.037 28.8281C115.554 29.3345 114.923 29.5877 114.145 29.5877C113.309 29.5877 112.661 29.323 112.201 28.7936C111.742 28.2641 111.512 27.4872 111.512 26.4629V6.98888C111.512 5.88398 111.765 5.08404 112.272 4.58907C112.778 4.09417 113.597 3.84671 114.729 3.84671H123.266C124.445 3.84671 125.452 3.89851 126.289 4.0021C127.125 4.09417 127.879 4.28982 128.551 4.58906C129.364 4.92284 130.083 5.40048 130.708 6.022C131.332 6.64351 131.803 7.36861 132.122 8.19729C132.452 9.01446 132.617 9.88346 132.617 10.8043C132.617 12.6919 132.069 14.1996 130.973 15.3274C129.889 16.4553 128.239 17.2553 126.023 17.7272C126.954 18.2106 127.844 18.9242 128.693 19.868C129.541 20.8118 130.295 21.8188 130.955 22.8891C131.627 23.948 132.145 24.909 132.511 25.7721C132.888 26.6238 133.076 27.2108 133.076 27.5331C133.076 27.8669 132.964 28.2006 132.74 28.5344C132.528 28.8567 132.234 29.1099 131.857 29.294C131.48 29.4897 131.044 29.5875 130.549 29.5875C129.959 29.5875 129.464 29.4494 129.064 29.1732C128.663 28.9085 128.316 28.5689 128.021 28.1546C127.738 27.7402 127.349 27.1302 126.854 26.3246L124.751 22.9062C123.997 21.6517 123.319 20.6964 122.718 20.0404C122.129 19.3844 121.528 18.9355 120.915 18.6938C120.303 18.4521 119.531 18.3313 118.6 18.3313L118.6 18.3315ZM121.605 7.69676H116.761V14.6543H121.463C122.724 14.6543 123.785 14.5507 124.645 14.3436C125.505 14.1249 126.159 13.7623 126.607 13.2559C127.066 12.738 127.296 12.0302 127.296 11.1324C127.296 10.4303 127.114 9.81457 126.748 9.28514C126.383 8.74419 125.876 8.34136 125.228 8.07663C124.615 7.82343 123.407 7.69682 121.605 7.69682V7.69676Z"
    fill="#6A6A6A"
  ></path>
  <path
    d="M152.661 8.07557H146.934V26.462C146.934 27.5209 146.693 28.3093 146.21 28.8272C145.727 29.3336 145.102 29.5868 144.336 29.5868C143.558 29.5868 142.922 29.3278 142.427 28.8099C141.944 28.292 141.702 27.5093 141.702 26.462V8.07555H135.976C135.08 8.07555 134.414 7.88564 133.978 7.50583C133.542 7.11451 133.324 6.60234 133.324 5.9693C133.324 5.31326 133.548 4.79534 133.996 4.41552C134.455 4.03571 135.115 3.84579 135.976 3.84579H152.662C153.569 3.84579 154.241 4.04145 154.677 4.43277C155.124 4.82409 155.348 5.33627 155.348 5.9693C155.348 6.60232 155.124 7.11449 154.677 7.50583C154.229 7.88564 153.557 8.07555 152.662 8.07555L152.661 8.07557Z"
    fill="#6A6A6A"
  ></path>
  <path
    d="M179.618 21.1624C179.618 21.9681 179.412 22.8428 178.999 23.7866C178.599 24.7189 177.962 25.6397 177.09 26.549C176.218 27.4467 175.105 28.1776 173.749 28.7415C172.394 29.3055 170.815 29.5875 169.012 29.5875C167.645 29.5875 166.402 29.4609 165.283 29.2077C164.163 28.9545 163.144 28.5632 162.225 28.0337C161.317 27.4928 160.481 26.7849 159.715 25.9102C159.031 25.1161 158.448 24.2298 157.965 23.2516C157.482 22.2618 157.117 21.2087 156.869 20.0923C156.633 18.9759 156.516 17.7904 156.516 16.5359C156.516 14.4987 156.816 12.6744 157.417 11.063C158.03 9.4517 158.902 8.07631 160.033 6.93686C161.164 5.78592 162.49 4.91118 164.01 4.31266C165.53 3.71416 167.151 3.41492 168.871 3.41492C170.969 3.41492 172.837 3.8235 174.475 4.64068C176.113 5.45785 177.368 6.47071 178.24 7.67927C179.112 8.87626 179.548 10.01 179.548 11.0804C179.548 11.6674 179.335 12.1853 178.911 12.6342C178.487 13.083 177.974 13.3075 177.373 13.3075C176.702 13.3075 176.195 13.1521 175.853 12.8413C175.523 12.5306 175.152 11.9954 174.74 11.2358C174.056 9.98124 173.249 9.04325 172.318 8.42182C171.399 7.8003 170.262 7.48954 168.907 7.48954C166.75 7.48954 165.03 8.28948 163.745 9.88935C162.473 11.4892 161.836 13.7624 161.836 16.7088C161.836 18.6769 162.119 20.317 162.685 21.6291C163.25 22.9297 164.052 23.9022 165.089 24.5468C166.126 25.1913 167.339 25.5136 168.73 25.5136C170.238 25.5136 171.511 25.151 172.548 24.4259C173.597 23.6893 174.386 22.6132 174.916 21.1976C175.14 20.53 175.417 19.9891 175.747 19.5747C176.077 19.1489 176.607 18.9359 177.338 18.9359C177.963 18.9359 178.499 19.1489 178.946 19.5747C179.394 20.0006 179.618 20.53 179.618 21.163L179.618 21.1624Z"
    fill="#6A6A6A"
  ></path>
</svg>

<svg width="181" height="33" viewBox="0 0 181 33" fill="none" xmlns="http://www.w3.org/2000/svg"><path d="M93.54 24.664c0 3.902-3.238 7.065-7.233 7.065-3.995 0-7.233-3.163-7.233-7.065 0-3.901 3.238-7.064 7.233-7.064 3.995 0 7.233 3.163 7.233 7.064Z" fill="#858585"/><path d="M107.844 14.774c0 3.9-3.238 7.064-7.232 7.064-3.995 0-7.233-3.164-7.233-7.064 0-3.902 3.238-7.066 7.233-7.066 3.994 0 7.232 3.164 7.232 7.066Z" fill="#848484"/><path d="M90.165 14.617c0 3.901-3.238 7.065-7.233 7.065-3.994 0-7.233-3.164-7.233-7.064 0-3.902 3.239-7.066 7.233-7.066 3.995 0 7.233 3.164 7.233 7.066Z" fill="#9A9A9A"/><path d="M104.63 24.664c0 3.902-3.238 7.065-7.233 7.065-3.995 0-7.233-3.163-7.233-7.065 0-3.901 3.239-7.064 7.233-7.064 3.995 0 7.233 3.163 7.233 7.064Z" fill="#878787"/><path d="M99.005 8.338c0 3.901-3.239 7.064-7.233 7.064-3.995 0-7.233-3.163-7.233-7.064 0-3.902 3.239-7.065 7.233-7.065 3.994 0 7.233 3.163 7.233 7.065Z" fill="#777"/><path d="M93.379 14.774c0 .148.013.294.023.44 3.208-.723 5.602-3.524 5.602-6.877 0-.149-.013-.295-.023-.442-3.208.724-5.602 3.525-5.602 6.879Z" fill="#555454"/><path d="M94.332 18.271a7.258 7.258 0 0 0 6.279 3.567 7.337 7.337 0 0 0 3.064-.672 7.258 7.258 0 0 0-6.28-3.567 7.335 7.335 0 0 0-3.063.672M90.164 24.664c0 1.726.635 3.306 1.688 4.532a6.937 6.937 0 0 0 1.687-4.532 6.937 6.937 0 0 0-1.687-4.532 6.932 6.932 0 0 0-1.688 4.532M80.066 21.103c.879.371 1.846.579 2.864.579a7.256 7.256 0 0 0 6.24-3.504 7.348 7.348 0 0 0-2.864-.578 7.256 7.256 0 0 0-6.24 3.503" fill="#6A6A6A"/><path d="M84.57 7.74a6.939 6.939 0 0 0-.03.597c0 3.35 2.39 6.15 5.594 6.875.017-.196.031-.394.031-.595 0-3.35-2.39-6.15-5.595-6.876Z" fill="#5F5F5F"/><path d="M85.247 23.79h-1.131c-.999 0-1.811-.791-1.811-1.764V12.023c0-.973.812-1.765 1.81-1.765h14.188c1 0 1.811.792 1.811 1.765v10.003c0 .973-.812 1.763-1.81 1.763H93.47l-9.697 4.643 1.474-4.643Z" fill="#fff"/><path d="m20.929 25.363-3.983-14.43-4.034 14.43c-.314 1.094-.566 1.882-.756 2.364-.18.47-.499.897-.958 1.28-.46.372-1.07.558-1.832.558-.616 0-1.126-.115-1.53-.345a2.588 2.588 0 0 1-.958-.935 6.087 6.087 0 0 1-.605-1.461 89.33 89.33 0 0 1-.42-1.576l-4.1-16.202c-.247-.941-.37-1.658-.37-2.15 0-.624.224-1.15.672-1.576.448-.427 1.003-.64 1.664-.64.907 0 1.518.284 1.832.853.314.569.588 1.395.823 2.479l3.227 14.051 3.614-13.148c.269-1.007.51-1.773.722-2.298.213-.526.56-.98 1.042-1.363s1.138-.574 1.967-.574c.84 0 1.49.202 1.95.607.47.394.795.826.974 1.297.18.47.42 1.247.723 2.33l3.647 13.15 3.227-14.052c.157-.733.302-1.308.437-1.724.145-.416.386-.788.722-1.116.348-.328.846-.493 1.496-.493s1.2.214 1.647.64c.46.416.69.942.69 1.577 0 .448-.124 1.165-.37 2.15l-4.101 16.202c-.28 1.094-.515 1.899-.706 2.413-.18.503-.493.947-.941 1.33-.437.383-1.059.574-1.866.574-.762 0-1.372-.186-1.832-.558-.459-.372-.778-.788-.958-1.248-.179-.47-.431-1.269-.756-2.396ZM47.398 21.554h-8.975c.012 1.018.219 1.915.622 2.692.415.777.958 1.362 1.63 1.756a4.43 4.43 0 0 0 2.253.591c.549 0 1.047-.06 1.495-.18a5.29 5.29 0 0 0 1.328-.591c.426-.274.818-.564 1.177-.87a54.14 54.14 0 0 0 1.395-1.248c.235-.197.571-.295 1.008-.295.47 0 .851.126 1.143.377.291.252.437.608.437 1.067 0 .405-.163.881-.488 1.428-.325.537-.818 1.056-1.479 1.56-.65.492-1.473.903-2.47 1.231-.986.328-2.123.492-3.412.492-2.947 0-5.238-.82-6.874-2.462-1.636-1.641-2.454-3.868-2.454-6.68 0-1.325.202-2.55.605-3.678.404-1.138.992-2.112 1.765-2.922.773-.81 1.726-1.428 2.857-1.855 1.132-.438 2.387-.657 3.765-.657 1.793 0 3.328.373 4.605 1.117 1.289.733 2.252 1.685 2.89 2.856.64 1.171.959 2.364.959 3.579 0 1.127-.33 1.86-.992 2.2-.66.328-1.59.492-2.79.492Zm-8.975-2.544h8.32c-.112-1.533-.538-2.676-1.278-3.431-.728-.766-1.692-1.15-2.89-1.15-1.143 0-2.084.39-2.824 1.166-.728.766-1.17 1.904-1.328 3.414ZM58.793 7.241v6.845c.863-.875 1.742-1.543 2.639-2.002.896-.47 2.005-.706 3.327-.706 1.524 0 2.858.355 4 1.067 1.154.7 2.045 1.723 2.673 3.07.638 1.335.958 2.921.958 4.76 0 1.357-.18 2.605-.538 3.743-.348 1.127-.857 2.106-1.53 2.938a6.98 6.98 0 0 1-2.453 1.937c-.953.449-2.006.673-3.16.673a7.877 7.877 0 0 1-2-.246c-.616-.164-1.143-.378-1.58-.64a7.974 7.974 0 0 1-1.126-.837 20.77 20.77 0 0 1-1.21-1.28v.442c0 .843-.207 1.483-.622 1.92-.414.428-.94.641-1.58.641-.65 0-1.17-.213-1.563-.64-.38-.438-.571-1.078-.571-1.92V7.437c0-.908.185-1.592.555-2.052.38-.47.907-.706 1.58-.706.705 0 1.249.225 1.63.673.38.438.571 1.067.571 1.888Zm.218 13.313c0 1.784.415 3.157 1.244 4.12.84.953 1.938 1.428 3.294 1.428 1.154 0 2.146-.486 2.975-1.46.84-.985 1.26-2.392 1.26-4.22 0-1.181-.173-2.199-.52-3.053-.348-.853-.84-1.51-1.48-1.97-.638-.47-1.383-.705-2.235-.705-.874 0-1.652.235-2.336.706-.684.46-1.221 1.132-1.613 2.019-.393.875-.589 1.92-.589 3.135ZM118.6 18.331h-1.839v8.132c0 1.07-.241 1.859-.724 2.365-.483.506-1.114.76-1.892.76-.836 0-1.484-.265-1.944-.794-.459-.53-.689-1.307-.689-2.331V6.989c0-1.105.253-1.905.76-2.4.506-.495 1.325-.742 2.457-.742h8.537c1.179 0 2.186.052 3.023.155.836.092 1.59.288 2.262.587a6.568 6.568 0 0 1 2.157 1.433 6.156 6.156 0 0 1 1.414 2.175c.33.817.495 1.686.495 2.607 0 1.888-.548 3.396-1.644 4.523-1.084 1.128-2.734 1.928-4.95 2.4.931.484 1.821 1.197 2.67 2.141.848.944 1.602 1.95 2.262 3.021.672 1.059 1.19 2.02 1.556 2.883.377.852.565 1.439.565 1.761 0 .334-.112.668-.336 1.001a2.168 2.168 0 0 1-.883.76c-.377.196-.813.293-1.308.293-.59 0-1.085-.138-1.485-.414a3.945 3.945 0 0 1-1.043-1.018 48.54 48.54 0 0 1-1.167-1.83l-2.103-3.419c-.754-1.254-1.432-2.21-2.033-2.866-.589-.656-1.19-1.104-1.803-1.346-.612-.242-1.384-.363-2.315-.363Zm3.005-10.634h-4.844v6.957h4.702c1.261 0 2.322-.103 3.182-.31.86-.22 1.514-.582 1.962-1.088.459-.518.689-1.226.689-2.124 0-.702-.182-1.317-.548-1.847-.365-.54-.872-.944-1.52-1.208-.613-.254-1.821-.38-3.623-.38ZM152.661 8.076h-5.727v18.386c0 1.059-.241 1.847-.724 2.365-.483.507-1.108.76-1.874.76-.778 0-1.414-.26-1.909-.777-.483-.518-.725-1.3-.725-2.348V8.076h-5.726c-.896 0-1.562-.19-1.998-.57-.436-.391-.654-.904-.654-1.537 0-.656.224-1.174.672-1.553.459-.38 1.119-.57 1.98-.57h16.686c.907 0 1.579.195 2.015.587.447.391.671.903.671 1.536s-.224 1.145-.671 1.537c-.448.38-1.12.57-2.015.57h-.001ZM179.618 21.162c0 .806-.206 1.68-.619 2.625-.4.932-1.037 1.853-1.909 2.762-.872.898-1.985 1.629-3.341 2.192-1.355.564-2.934.846-4.737.846-1.367 0-2.61-.126-3.729-.38a10.896 10.896 0 0 1-3.058-1.173c-.908-.541-1.744-1.25-2.51-2.124a12.597 12.597 0 0 1-1.75-2.658 14.193 14.193 0 0 1-1.096-3.16 17.17 17.17 0 0 1-.353-3.556c0-2.037.3-3.862.901-5.473.613-1.611 1.485-2.987 2.616-4.126a11.332 11.332 0 0 1 3.977-2.624c1.52-.599 3.141-.898 4.861-.898 2.098 0 3.966.409 5.604 1.226s2.893 1.83 3.765 3.038c.872 1.197 1.308 2.331 1.308 3.401 0 .587-.213 1.105-.637 1.554-.424.449-.937.673-1.538.673-.671 0-1.178-.155-1.52-.466-.33-.31-.701-.846-1.113-1.605-.684-1.255-1.491-2.193-2.422-2.814-.919-.622-2.056-.932-3.411-.932-2.157 0-3.877.8-5.162 2.4-1.272 1.6-1.909 3.872-1.909 6.819 0 1.968.283 3.608.849 4.92.565 1.3 1.367 2.273 2.404 2.918 1.037.644 2.25.967 3.641.967 1.508 0 2.781-.363 3.818-1.088 1.049-.737 1.838-1.813 2.368-3.228.224-.668.501-1.209.831-1.623.33-.426.86-.64 1.591-.64a2.25 2.25 0 0 1 1.608.64c.448.426.672.955.672 1.588Z" fill="#6A6A6A"/></svg>
